flaticon/wild-west/dreamcatcher.svg

<svg xmlns="http://www.w3.org/2000/svg" width="32" height="32" viewBox="0 0 24 24">
    <path d="M13.199219 5.199219C13.199219 5.421875 13.019531 5.601562 12.800781 5.601562 12.578125 5.601562 12.398438 5.421875 12.398438 5.199219 12.398438 4.980469 12.578125 4.800781 12.800781 4.800781 13.019531 4.800781 13.199219 4.980469 13.199219 5.199219zM11.601562 5.199219C11.601562 5.421875 11.421875 5.601562 11.199219 5.601562 10.980469 5.601562 10.800781 5.421875 10.800781 5.199219 10.800781 4.980469 10.980469 4.800781 11.199219 4.800781 11.421875 4.800781 11.601562 4.980469 11.601562 5.199219zM12.398438 6C12.398438 6.222656 12.222656 6.398438 12 6.398438 11.777344 6.398438 11.601562 6.222656 11.601562 6 11.601562 5.777344 11.777344 5.601562 12 5.601562 12.222656 5.601562 12.398438 5.777344 12.398438 6zM14 6C14 6.222656 13.820312 6.398438 13.601562 6.398438 13.378906 6.398438 13.199219 6.222656 13.199219 6 13.199219 5.777344 13.378906 5.601562 13.601562 5.601562 13.820312 5.601562 14 5.777344 14 6zM13.199219 6.800781C13.199219 7.019531 13.019531 7.199219 12.800781 7.199219 12.578125 7.199219 12.398438 7.019531 12.398438 6.800781 12.398438 6.578125 12.578125 6.398438 12.800781 6.398438 13.019531 6.398438 13.199219 6.578125 13.199219 6.800781zM11.601562 6.800781C11.601562 7.019531 11.421875 7.199219 11.199219 7.199219 10.980469 7.199219 10.800781 7.019531 10.800781 6.800781 10.800781 6.578125 10.980469 6.398438 11.199219 6.398438 11.421875 6.398438 11.601562 6.578125 11.601562 6.800781zM10.800781 6C10.800781 6.222656 10.621094 6.398438 10.398438 6.398438 10.179688 6.398438 10 6.222656 10 6 10 5.777344 10.179688 5.601562 10.398438 5.601562 10.621094 5.601562 10.800781 5.777344 10.800781 6zM11.601562 8.398438C11.601562 8.621094 11.421875 8.800781 11.199219 8.800781 10.980469 8.800781 10.800781 8.621094 10.800781 8.398438 10.800781 8.179688 10.980469 8 11.199219 8 11.421875 8 11.601562 8.179688 11.601562 8.398438zM13.199219 8.398438C13.199219 8.621094 13.019531 8.800781 12.800781 8.800781 12.578125 8.800781 12.398438 8.621094 12.398438 8.398438 12.398438 8.179688 12.578125 8 12.800781 8 13.019531 8 13.199219 8.179688 13.199219 8.398438zM12.398438 7.601562C12.398438 7.820312 12.222656 8 12 8 11.777344 8 11.601562 7.820312 11.601562 7.601562 11.601562 7.378906 11.777344 7.199219 12 7.199219 12.222656 7.199219 12.398438 7.378906 12.398438 7.601562zM10.800781 7.601562C10.800781 7.820312 10.621094 8 10.398438 8 10.179688 8 10 7.820312 10 7.601562 10 7.378906 10.179688 7.199219 10.398438 7.199219 10.621094 7.199219 10.800781 7.378906 10.800781 7.601562zM14 7.601562C14 7.820312 13.820312 8 13.601562 8 13.378906 8 13.199219 7.820312 13.199219 7.601562 13.199219 7.378906 13.378906 7.199219 13.601562 7.199219 13.820312 7.199219 14 7.378906 14 7.601562zM14 7.601562"/>
    <path d="M 18.800781 13.058594 L 18.800781 6.800781 C 18.800781 3.050781 15.75 0 12 0 C 8.25 0 5.199219 3.050781 5.199219 6.800781 L 5.199219 13.058594 L 3.199219 15.558594 L 3.199219 15.699219 C 3.199219 21.191406 5.285156 22.671875 5.375 22.730469 L 5.601562 22.882812 L 5.824219 22.730469 C 5.914062 22.671875 8 21.191406 8 15.699219 L 8 15.558594 L 6 13.058594 L 6 9.992188 C 7.027344 11.914062 8.949219 13.285156 11.207031 13.550781 L 10.746094 14.128906 C 9.902344 15.183594 9.484375 16.46875 9.601562 17.652344 C 9.972656 21.382812 11.394531 23.453125 11.664062 23.820312 L 11.785156 24 L 12 24 L 12.207031 23.992188 L 12.328125 23.832031 C 12.609375 23.453125 14.027344 21.382812 14.398438 17.652344 C 14.515625 16.46875 14.097656 15.183594 13.253906 14.128906 L 12.792969 13.550781 C 15.050781 13.285156 16.972656 11.914062 18 9.992188 L 18 13.058594 L 16 15.558594 L 16 15.699219 C 16 21.191406 18.089844 22.671875 18.175781 22.730469 L 18.398438 22.882812 L 18.625 22.730469 C 18.714844 22.671875 20.800781 21.191406 20.800781 15.699219 L 20.800781 15.558594 Z M 7.199219 15.839844 C 7.171875 19.664062 6.082031 21.308594 5.601562 21.851562 C 5.117188 21.308594 4.027344 19.660156 4 15.839844 L 5.199219 14.339844 L 5.199219 17.035156 L 4.515625 17.71875 C 4.359375 17.875 4.359375 18.125 4.515625 18.28125 C 4.59375 18.359375 4.699219 18.398438 4.800781 18.398438 C 4.902344 18.398438 5.003906 18.359375 5.082031 18.28125 L 5.199219 18.164062 L 5.199219 19.601562 C 5.199219 19.820312 5.378906 20 5.601562 20 C 5.820312 20 6 19.820312 6 19.601562 L 6 18.164062 L 6.117188 18.28125 C 6.195312 18.359375 6.296875 18.398438 6.398438 18.398438 C 6.503906 18.398438 6.605469 18.359375 6.683594 18.28125 C 6.839844 18.125 6.839844 17.875 6.683594 17.71875 L 6 17.035156 L 6 14.339844 Z M 17.148438 3.734375 L 12.257812 0.8125 C 14.335938 0.902344 16.140625 2.050781 17.148438 3.734375 Z M 11.976562 11.996094 L 7.601562 9.382812 L 7.601562 4.179688 L 12.023438 1.605469 L 16.398438 4.21875 L 16.398438 9.421875 Z M 11.796875 0.808594 L 6.894531 3.664062 C 7.917969 2.003906 9.722656 0.878906 11.796875 0.808594 Z M 6.800781 3.820312 L 6.800781 9.78125 C 6.292969 8.902344 6 7.886719 6 6.800781 C 6 5.714844 6.292969 4.699219 6.800781 3.820312 Z M 6.851562 9.867188 L 11.742188 12.785156 C 9.664062 12.699219 7.859375 11.550781 6.851562 9.867188 Z M 13.601562 17.570312 C 13.335938 20.257812 12.484375 22.039062 12 22.867188 C 11.519531 22.054688 10.664062 20.269531 10.398438 17.570312 C 10.300781 16.59375 10.65625 15.519531 11.371094 14.628906 L 11.601562 14.339844 L 11.601562 16.234375 L 10.917969 16.917969 C 10.761719 17.074219 10.761719 17.328125 10.917969 17.484375 C 10.996094 17.5625 11.097656 17.601562 11.199219 17.601562 C 11.300781 17.601562 11.40625 17.5625 11.484375 17.484375 L 11.601562 17.367188 L 11.601562 18.234375 L 10.917969 18.917969 C 10.761719 19.074219 10.761719 19.328125 10.917969 19.484375 C 10.996094 19.5625 11.097656 19.601562 11.199219 19.601562 C 11.300781 19.601562 11.40625 19.5625 11.484375 19.484375 L 11.601562 19.367188 L 11.601562 20 C 11.601562 20.222656 11.777344 20.398438 12 20.398438 C 12.222656 20.398438 12.398438 20.222656 12.398438 20 L 12.398438 19.367188 L 12.515625 19.484375 C 12.59375 19.5625 12.699219 19.601562 12.800781 19.601562 C 12.902344 19.601562 13.003906 19.5625 13.082031 19.484375 C 13.238281 19.328125 13.238281 19.074219 13.082031 18.917969 L 12.398438 18.234375 L 12.398438 17.367188 L 12.515625 17.484375 C 12.59375 17.5625 12.699219 17.601562 12.800781 17.601562 C 12.902344 17.601562 13.003906 17.5625 13.082031 17.484375 C 13.238281 17.328125 13.238281 17.074219 13.082031 16.917969 L 12.398438 16.234375 L 12.398438 14.339844 L 12.628906 14.628906 C 13.34375 15.519531 13.699219 16.59375 13.601562 17.570312 Z M 12.203125 12.789062 L 17.105469 9.9375 C 16.082031 11.597656 14.277344 12.71875 12.203125 12.789062 Z M 17.199219 9.78125 L 17.199219 3.820312 C 17.707031 4.699219 18 5.714844 18 6.800781 C 18 7.886719 17.707031 8.902344 17.199219 9.78125 Z M 18.398438 21.851562 C 17.917969 21.308594 16.828125 19.660156 16.800781 15.839844 L 18 14.339844 L 18 17.035156 L 17.316406 17.71875 C 17.160156 17.875 17.160156 18.125 17.316406 18.28125 C 17.394531 18.359375 17.496094 18.398438 17.601562 18.398438 C 17.703125 18.398438 17.804688 18.359375 17.882812 18.28125 L 18 18.164062 L 18 19.601562 C 18 19.820312 18.179688 20 18.398438 20 C 18.621094 20 18.800781 19.820312 18.800781 19.601562 L 18.800781 18.164062 L 18.917969 18.28125 C 18.996094 18.359375 19.097656 18.398438 19.199219 18.398438 C 19.300781 18.398438 19.40625 18.359375 19.484375 18.28125 C 19.640625 18.125 19.640625 17.875 19.484375 17.71875 L 18.800781 17.035156 L 18.800781 14.339844 L 20 15.839844 C 19.972656 19.664062 18.882812 21.308594 18.398438 21.851562 Z M 18.398438 21.851562"/>
    <path d="M 10.175781 3.601562 L 8.28125 6.730469 L 10.167969 10 L 13.828125 10.015625 L 15.71875 6.761719 L 13.828125 3.601562 Z M 11.601562 4.398438 C 11.601562 4.621094 11.78125 4.800781 12 4.800781 C 12.222656 4.800781 12.398438 4.621094 12.398438 4.398438 L 13.199219 4.398438 C 13.199219 4.621094 13.378906 4.800781 13.601562 4.800781 C 13.605469 4.800781 13.609375 4.796875 13.613281 4.796875 L 14.613281 6.46875 C 14.550781 6.429688 14.480469 6.398438 14.398438 6.398438 C 14.179688 6.398438 14 6.578125 14 6.800781 C 14 7.019531 14.179688 7.199219 14.398438 7.199219 C 14.457031 7.199219 14.511719 7.1875 14.558594 7.167969 L 13.609375 8.800781 C 13.605469 8.800781 13.601562 8.800781 13.601562 8.800781 C 13.378906 8.800781 13.199219 8.980469 13.199219 9.199219 C 13.199219 9.203125 13.203125 9.207031 13.203125 9.214844 L 12.398438 9.210938 C 12.398438 9.207031 12.398438 9.203125 12.398438 9.199219 C 12.398438 8.980469 12.222656 8.800781 12 8.800781 C 11.78125 8.800781 11.601562 8.980469 11.601562 9.199219 C 11.601562 9.203125 11.601562 9.203125 11.601562 9.207031 L 10.800781 9.203125 C 10.800781 9.203125 10.800781 9.199219 10.800781 9.199219 C 10.800781 8.980469 10.621094 8.800781 10.398438 8.800781 L 9.460938 7.171875 C 9.503906 7.1875 9.550781 7.199219 9.601562 7.199219 C 9.820312 7.199219 10 7.019531 10 6.800781 C 10 6.578125 9.820312 6.398438 9.601562 6.398438 C 9.507812 6.398438 9.429688 6.4375 9.363281 6.488281 L 10.386719 4.796875 C 10.390625 4.796875 10.394531 4.800781 10.398438 4.800781 C 10.621094 4.800781 10.800781 4.621094 10.800781 4.398438 Z M 9.214844 6.734375 C 9.214844 6.734375 9.210938 6.738281 9.210938 6.742188 L 9.210938 6.738281 Z M 9.214844 6.734375"/>
</svg>

<svg xmlns="http://www.w3.org/2000/svg" width="32" height="32" viewBox="0 0 24 24">
    <path d="M13.2 5.2a.401.401 0 1 1-.803.002.401.401 0 0 1 .802-.003zm0 0M11.602 5.2a.401.401 0 1 1 0 0zm0 0M12.398 6a.395.395 0 0 1-.398.398.395.395 0 0 1-.398-.398c0-.223.175-.398.398-.398.223 0 .398.175.398.398zm0 0M14 6c0 .223-.18.398-.398.398a.398.398 0 1 1 0-.796c.218 0 .398.175.398.398zm0 0M13.2 6.8a.4.4 0 1 1-.801-.003.4.4 0 0 1 .8.004zm0 0M11.602 6.8a.401.401 0 1 1-.802-.004.401.401 0 0 1 .802.005zm0 0M10.8 6c0 .223-.179.398-.402.398a.398.398 0 1 1 0-.796c.223 0 .403.175.403.398zm0 0M11.602 8.398a.401.401 0 1 1 0 0zm0 0M13.2 8.398a.401.401 0 1 1-.803.003.401.401 0 0 1 .802-.003zm0 0M12.398 7.602a.398.398 0 1 1-.796 0 .398.398 0 1 1 .796 0zm0 0M10.8 7.602A.401.401 0 1 1 10 7.597a.401.401 0 0 1 .802.005zm0 0M14 7.602a.4.4 0 1 1-.8-.004.4.4 0 0 1 .8.004zm0 0"/>
    <path d="M18.8 13.059V6.8C18.8 3.05 15.75 0 12 0S5.2 3.05 5.2 6.8v6.259l-2 2.5v.14c0 5.492 2.085 6.973 2.175 7.031l.227.153.222-.153C5.914 22.672 8 21.191 8 15.7v-.141l-2-2.5V9.992a6.817 6.817 0 0 0 5.207 3.559l-.46.578c-.845 1.055-1.263 2.34-1.145 3.523.37 3.73 1.793 5.801 2.062 6.168l.121.18H12l.207-.008.121-.16c.281-.379 1.7-2.45 2.07-6.18.118-1.183-.3-2.468-1.144-3.523l-.461-.578A6.817 6.817 0 0 0 18 9.992v3.067l-2 2.5v.14c0 5.492 2.09 6.973 2.176 7.031l.222.153.227-.153c.09-.058 2.176-1.539 2.176-7.03v-.141zm-11.6 2.78c-.028 3.825-1.118 5.47-1.598 6.013C5.117 21.309 4.027 19.66 4 15.84l1.2-1.5v2.695l-.684.684a.396.396 0 0 0 0 .562.405.405 0 0 0 .285.117c.101 0 .203-.039.281-.117l.117-.117v1.438a.401.401 0 0 0 .801 0v-1.438l.117.117a.399.399 0 0 0 .566-.563L6 17.036V14.34zm9.948-12.105L12.258.813a6.002 6.002 0 0 1 4.89 2.921zm-5.171 8.262L7.602 9.383V4.18l4.421-2.575 4.375 2.614v5.203zM11.797.81L6.895 3.664A5.995 5.995 0 0 1 11.797.81zM6.8 3.82v5.961A5.935 5.935 0 0 1 6 6.801c0-1.086.293-2.102.8-2.98zm.05 6.047l4.891 2.918a5.989 5.989 0 0 1-4.89-2.918zm6.75 7.703c-.265 2.688-1.117 4.47-1.601 5.297-.48-.812-1.336-2.597-1.602-5.297-.097-.976.258-2.05.973-2.941l.23-.29v1.895l-.683.684a.4.4 0 0 0 .566.566l.118-.117v.867l-.684.684a.4.4 0 0 0 .566.566l.118-.117V20c0 .223.175.398.398.398a.395.395 0 0 0 .398-.398v-.633l.118.117a.405.405 0 0 0 .285.118.4.4 0 0 0 .281-.684l-.684-.684v-.867l.118.117a.405.405 0 0 0 .285.118.4.4 0 0 0 .281-.684l-.684-.684V14.34l.23.289c.716.89 1.071 1.965.974 2.941zm-1.398-4.78l4.902-2.852a5.99 5.99 0 0 1-4.902 2.851zM17.2 9.78v-5.96c.508.878.801 1.894.801 2.98a5.935 5.935 0 0 1-.8 2.98zm1.2 12.07c-.481-.542-1.57-2.19-1.598-6.011L18 14.34v2.695l-.684.684a.399.399 0 1 0 .566.563l.118-.118v1.438a.4.4 0 0 0 .8 0v-1.438l.118.117c.078.078.18.117.281.117.102 0 .207-.039.285-.117a.396.396 0 0 0 0-.562l-.683-.684V14.34L20 15.84c-.027 3.824-1.117 5.469-1.602 6.012zm0 0"/>
    <path d="M10.176 3.602L8.28 6.73 10.168 10l3.66.016 1.89-3.254-1.89-3.16zm1.426.796a.398.398 0 0 0 .797 0h.8c0 .223.18.403.403.403.003 0 .007-.004.011-.004l1 1.672a.402.402 0 0 0-.215-.07.401.401 0 1 0 .16.769l-.949 1.633h-.007a.401.401 0 0 0-.403.398c0 .004.004.008.004.016l-.805-.004v-.012a.398.398 0 1 0-.796 0v.008l-.801-.004V9.2a.401.401 0 0 0-.403-.398l-.937-1.63a.41.41 0 0 0 .14.028.4.4 0 0 0 0-.8.389.389 0 0 0-.238.09l1.024-1.692c.004 0 .008.004.011.004.223 0 .403-.18.403-.403zM9.215 6.734s-.004.004-.004.008v-.004zm0 0"/>
</svg>
